; generated by Slic3r 1.3.1-dev (Build d17659b67c65bb5003ec92bf0d56ed7f8810e970) on 2020-09-25 at 13:09:30

; Printer Config Notes: 
; This is the polar LathePrinter profile.
; 
; external perimeters extrusion width = 0.44mm (0.71mm^3/s)
; perimeters extrusion width = 0.42mm (0.67mm^3/s)
; infill extrusion width = 0.42mm (0.67mm^3/s)
; solid infill extrusion width = 0.42mm (0.67mm^3/s)
; top infill extrusion width = 0.42mm (2.00mm^3/s)

M107
M104 S225 ; set temperature
G28 ; home all axes

; Filament gcode

M109 S225 ; set temperature and wait for it to be reached
G21 ; set units to millimeters
G90 ; use absolute coordinates
M82 ; use absolute distances for extrusion
G92 E0
G92 E0
G1 Z0.500 F7800.000
G1 X-0.881 Y0.114 F7800.000
G1 F600
G1 X-0.896 Y-0.000 E0.00219
G1 X-0.867 Y-0.224 E0.00650
G1 X-0.784 Y-0.433 E0.01080
G1 X-0.651 Y-0.615 E0.01511
G1 X-0.433 Y-0.783 E0.02036
G1 X-0.241 Y-0.863 E0.02435
G1 X-0.041 Y-0.896 E0.02822
G1 X0.248 Y-0.862 E0.03377
G1 X0.441 Y-0.783 E0.03776
G1 X0.575 Y-0.691 E0.04087
G1 X0.729 Y-0.527 E0.04516
G1 X0.786 Y-0.437 E0.04719
G1 X0.866 Y-0.244 E0.05118
G1 X0.893 Y-0.112 E0.05375
G1 X0.900 Y0.013 E0.05614
G1 X0.872 Y0.220 E0.06013
G1 X0.837 Y0.330 E0.06234
G1 X0.729 Y0.527 E0.06663
G1 X0.629 Y0.643 E0.06956
G1 X0.462 Y0.769 E0.07355
G1 X0.172 Y0.881 E0.07950
G1 X-0.009 Y0.897 E0.08297
G1 X-0.216 Y0.868 E0.08696
G1 X-0.477 Y0.758 E0.09238
G1 X-0.640 Y0.626 E0.09639
G1 X-0.767 Y0.460 E0.10038
G1 X-0.874 Y0.173 E0.10622
G1 Z0.900 F7800.000
G1 F600
G1 X-0.896 Y0.002 E0.10948
G1 X-0.864 Y-0.220 E0.11368
G1 X-0.782 Y-0.432 E0.11797
G1 X-0.643 Y-0.623 E0.12242
G1 X-0.477 Y-0.758 E0.12644
G1 X-0.216 Y-0.868 E0.13178
G1 X-0.019 Y-0.895 E0.13552
G1 X0.172 Y-0.880 E0.13912
G1 X0.463 Y-0.769 E0.14498
G1 X0.629 Y-0.643 E0.14891
G1 X0.729 Y-0.527 E0.15179
G1 X0.837 Y-0.330 E0.15602
G1 X0.893 Y-0.112 E0.16025
G1 X0.900 Y0.013 E0.16261
G1 X0.872 Y0.220 E0.16654
G1 X0.837 Y0.330 E0.16872
G1 X0.727 Y0.525 E0.17294
G1 X0.629 Y0.643 E0.17582
G1 X0.463 Y0.769 E0.17975
G1 X0.172 Y0.881 E0.18561
G1 X-0.009 Y0.897 E0.18903
G1 X-0.216 Y0.869 E0.19296
G1 X-0.477 Y0.758 E0.19830
G1 X-0.640 Y0.626 E0.20226
G1 X-0.767 Y0.460 E0.20619
G1 X-0.864 Y0.232 E0.21085
G1 Z1.300 F7800.000
G1 X-0.859 Y0.231 F7800.000
G1 F600
G1 X-0.894 Y-0.013 E0.21549
G1 X-0.867 Y-0.224 E0.21950
G1 X-0.784 Y-0.433 E0.22375
G1 X-0.621 Y-0.643 E0.22875
G1 X-0.456 Y-0.771 E0.23269
G1 X-0.276 Y-0.853 E0.23643
G1 X-0.043 Y-0.890 E0.24086
G1 X0.172 Y-0.880 E0.24492
G1 X0.441 Y-0.783 E0.25032
G1 X0.575 Y-0.691 E0.25339
G1 X0.729 Y-0.527 E0.25762
G1 X0.866 Y-0.244 E0.26355
G1 X0.893 Y-0.112 E0.26608
G1 X0.893 Y0.112 E0.27032
G1 X0.866 Y0.244 E0.27285
G1 X0.786 Y0.437 E0.27679
G1 X0.729 Y0.527 E0.27879
G1 X0.575 Y0.691 E0.28303
G1 X0.441 Y0.783 E0.28610
G1 X0.248 Y0.862 E0.29003
G1 X-0.052 Y0.895 E0.29573
G1 X-0.273 Y0.854 E0.29997
G1 X-0.456 Y0.771 E0.30375
G1 X-0.649 Y0.617 E0.30842
G1 X-0.776 Y0.436 E0.31257
G1 X-0.842 Y0.288 E0.31562
M106 S255
G1 Z1.300 F7800.000
G1 X-0.842 Y0.288 F7800.000
G1 F600
G1 Z1.305 X-0.867 Y0.224 E0.31693
G1 Z1.321 X-0.896 Y-0.000 E0.32118
G1 Z1.337 X-0.867 Y-0.224 E0.32543
G1 Z1.353 X-0.784 Y-0.433 E0.32968
G1 Z1.372 X-0.621 Y-0.643 E0.33469
G1 Z1.387 X-0.456 Y-0.771 E0.33863
G1 Z1.401 X-0.273 Y-0.854 E0.34241
G1 Z1.421 X0.010 Y-0.897 E0.34782
G1 Z1.437 X0.224 Y-0.869 E0.35188
G1 Z1.449 X0.386 Y-0.811 E0.35512
G1 Z1.465 X0.575 Y-0.691 E0.35936
G1 Z1.472 X0.646 Y-0.624 E0.36119
G1 Z1.487 X0.773 Y-0.459 E0.36512
G1 Z1.497 X0.837 Y-0.330 E0.36784
G1 Z1.513 X0.893 Y-0.112 E0.37207
G1 Z1.529 X0.893 Y0.112 E0.37631
G1 Z1.538 X0.866 Y0.244 E0.37884
G1 Z1.553 X0.786 Y0.437 E0.38278
G1 Z1.561 X0.729 Y0.527 E0.38478
G1 Z1.577 X0.575 Y0.691 E0.38902
G1 Z1.589 X0.441 Y0.783 E0.39209
G1 Z1.603 X0.248 Y0.862 E0.39602
G1 Z1.625 X-0.052 Y0.895 E0.40172
G1 Z1.641 X-0.273 Y0.854 E0.40596
G1 Z1.655 X-0.456 Y0.771 E0.40974
G1 Z1.673 X-0.651 Y0.615 E0.41445
G1 Z1.688 X-0.781 Y0.438 E0.41859
G1 Z1.700 X-0.842 Y0.288 E0.42164
G1 Z1.700 F7800.000
G1 X-0.842 Y0.288 F7800.000
G1 F600
G1 Z1.705 X-0.867 Y0.224 E0.42295
G1 Z1.721 X-0.896 Y-0.000 E0.42720
G1 Z1.737 X-0.867 Y-0.224 E0.43145
G1 Z1.753 X-0.784 Y-0.433 E0.43570
G1 Z1.772 X-0.621 Y-0.643 E0.44071
G1 Z1.787 X-0.456 Y-0.771 E0.44464
G1 Z1.801 X-0.273 Y-0.854 E0.44842
G1 Z1.822 X0.017 Y-0.896 E0.45395
G1 Z1.837 X0.224 Y-0.869 E0.45789
G1 Z1.849 X0.386 Y-0.811 E0.46113
G1 Z1.865 X0.575 Y-0.691 E0.46537
G1 Z1.872 X0.646 Y-0.624 E0.46720
G1 Z1.887 X0.773 Y-0.459 E0.47113
G1 Z1.897 X0.837 Y-0.330 E0.47384
G1 Z1.913 X0.893 Y-0.112 E0.47808
G1 Z1.929 X0.893 Y0.112 E0.48231
G1 Z1.938 X0.866 Y0.244 E0.48485
G1 Z1.953 X0.786 Y0.437 E0.48879
G1 Z1.961 X0.729 Y0.527 E0.49079
G1 Z1.977 X0.575 Y0.691 E0.49503
G1 Z1.988 X0.441 Y0.783 E0.49809
G1 Z2.003 X0.248 Y0.862 E0.50203
G1 Z2.025 X-0.052 Y0.895 E0.50773
G1 Z2.041 X-0.273 Y0.854 E0.51197
G1 Z2.055 X-0.456 Y0.771 E0.51575
G1 Z2.073 X-0.651 Y0.615 E0.52046
G1 Z2.088 X-0.781 Y0.438 E0.52460
G1 Z2.100 X-0.842 Y0.288 E0.52765
G1 Z2.100 F7800.000
G1 X-0.842 Y0.288 F7800.000
G1 F600
G1 Z2.105 X-0.867 Y0.224 E0.52895
G1 Z2.121 X-0.896 Y-0.000 E0.53320
G1 Z2.137 X-0.867 Y-0.224 E0.53746
G1 Z2.153 X-0.784 Y-0.433 E0.54170
G1 Z2.172 X-0.621 Y-0.643 E0.54671
G1 Z2.187 X-0.456 Y-0.771 E0.55065
G1 Z2.201 X-0.273 Y-0.854 E0.55443
G1 Z2.222 X0.017 Y-0.896 E0.55996
G1 Z2.237 X0.224 Y-0.869 E0.56389
G1 Z2.249 X0.386 Y-0.811 E0.56714
G1 Z2.265 X0.575 Y-0.691 E0.57138
G1 Z2.272 X0.646 Y-0.624 E0.57320
G1 Z2.287 X0.773 Y-0.459 E0.57714
G1 Z2.297 X0.837 Y-0.330 E0.57985
G1 Z2.313 X0.893 Y-0.112 E0.58409
G1 Z2.329 X0.893 Y0.112 E0.58832
G1 Z2.338 X0.866 Y0.244 E0.59086
G1 Z2.353 X0.786 Y0.437 E0.59480
G1 Z2.361 X0.729 Y0.527 E0.59680
G1 Z2.377 X0.575 Y0.691 E0.60104
G1 Z2.388 X0.441 Y0.783 E0.60410
G1 Z2.403 X0.248 Y0.862 E0.60804
G1 Z2.425 X-0.052 Y0.895 E0.61374
G1 Z2.441 X-0.273 Y0.854 E0.61798
G1 Z2.455 X-0.456 Y0.771 E0.62176
G1 Z2.473 X-0.651 Y0.615 E0.62647
G1 Z2.488 X-0.781 Y0.438 E0.63060
G1 Z2.500 X-0.842 Y0.288 E0.63366
G1 Z2.500 F7800.000
G1 X-0.842 Y0.288 F7800.000
G1 F600
G1 Z2.505 X-0.867 Y0.224 E0.63496
G1 Z2.521 X-0.896 Y-0.000 E0.63921
G1 Z2.537 X-0.867 Y-0.224 E0.64347
G1 Z2.553 X-0.784 Y-0.433 E0.64771
G1 Z2.572 X-0.621 Y-0.643 E0.65272
G1 Z2.587 X-0.456 Y-0.771 E0.65666
G1 Z2.601 X-0.273 Y-0.854 E0.66044
G1 Z2.622 X0.017 Y-0.896 E0.66597
G1 Z2.637 X0.224 Y-0.869 E0.66990
G1 Z2.649 X0.386 Y-0.811 E0.67315
G1 Z2.665 X0.575 Y-0.691 E0.67739
G1 Z2.672 X0.646 Y-0.624 E0.67921
G1 Z2.687 X0.773 Y-0.459 E0.68315
G1 Z2.697 X0.837 Y-0.330 E0.68586
G1 Z2.713 X0.893 Y-0.112 E0.69010
G1 Z2.729 X0.893 Y0.112 E0.69433
G1 Z2.738 X0.866 Y0.244 E0.69687
G1 Z2.753 X0.786 Y0.437 E0.70081
G1 Z2.761 X0.729 Y0.527 E0.70281
G1 Z2.777 X0.575 Y0.691 E0.70705
G1 Z2.789 X0.441 Y0.783 E0.71011
G1 Z2.803 X0.248 Y0.862 E0.71405
G1 Z2.825 X-0.052 Y0.895 E0.71975
G1 Z2.841 X-0.273 Y0.854 E0.72399
G1 Z2.854 X-0.447 Y0.776 E0.72758
G1 Z2.873 X-0.652 Y0.614 E0.73251
G1 Z2.888 X-0.781 Y0.438 E0.73661
G1 Z2.900 X-0.842 Y0.288 E0.73966
G1 Z2.900 F7800.000
G1 X-0.842 Y0.288 F7800.000
G1 F600
G1 Z2.905 X-0.867 Y0.224 E0.74097
G1 Z2.921 X-0.896 Y0.000 E0.74522
G1 Z2.937 X-0.867 Y-0.224 E0.74947
G1 Z2.953 X-0.784 Y-0.433 E0.75372
G1 Z2.972 X-0.621 Y-0.643 E0.75873
G1 Z2.987 X-0.456 Y-0.771 E0.76267
G1 Z3.001 X-0.272 Y-0.849 E0.76644
G1 Z3.022 X0.017 Y-0.896 E0.77195
G1 Z3.037 X0.224 Y-0.869 E0.77589
G1 Z3.049 X0.386 Y-0.811 E0.77913
G1 Z3.065 X0.575 Y-0.691 E0.78337
G1 Z3.072 X0.646 Y-0.624 E0.78520
G1 Z3.087 X0.773 Y-0.459 E0.78914
G1 Z3.097 X0.837 Y-0.330 E0.79185
G1 Z3.113 X0.890 Y-0.112 E0.79608
G1 Z3.129 X0.893 Y0.112 E0.80031
G1 Z3.138 X0.866 Y0.244 E0.80284
G1 Z3.153 X0.786 Y0.437 E0.80678
G1 Z3.161 X0.729 Y0.527 E0.80878
G1 Z3.177 X0.575 Y0.691 E0.81302
G1 Z3.188 X0.441 Y0.783 E0.81609
G1 Z3.203 X0.248 Y0.862 E0.82002
G1 Z3.225 X-0.052 Y0.895 E0.82572
G1 Z3.241 X-0.273 Y0.854 E0.82996
G1 Z3.255 X-0.456 Y0.771 E0.83374
G1 Z3.273 X-0.651 Y0.615 E0.83845
G1 Z3.288 X-0.781 Y0.438 E0.84259
G1 Z3.300 X-0.842 Y0.288 E0.84564
G1 Z3.300 F7800.000
G1 X-0.842 Y0.288 F7800.000
G1 F600
G1 Z3.305 X-0.867 Y0.224 E0.84694
G1 Z3.321 X-0.896 Y0.000 E0.85119
G1 Z3.337 X-0.867 Y-0.224 E0.85545
G1 Z3.353 X-0.784 Y-0.433 E0.85969
G1 Z3.372 X-0.621 Y-0.643 E0.86470
G1 Z3.387 X-0.456 Y-0.771 E0.86864
G1 Z3.401 X-0.272 Y-0.851 E0.87241
G1 Z3.422 X0.017 Y-0.896 E0.87793
G1 Z3.437 X0.224 Y-0.869 E0.88187
G1 Z3.449 X0.386 Y-0.811 E0.88511
G1 Z3.465 X0.575 Y-0.691 E0.88935
G1 Z3.472 X0.646 Y-0.624 E0.89118
G1 Z3.487 X0.773 Y-0.459 E0.89512
G1 Z3.497 X0.837 Y-0.330 E0.89783
G1 Z3.513 X0.893 Y-0.112 E0.90206
G1 Z3.529 X0.893 Y0.112 E0.90630
G1 Z3.538 X0.866 Y0.244 E0.90883
G1 Z3.553 X0.786 Y0.437 E0.91277
G1 Z3.561 X0.729 Y0.527 E0.91478
G1 Z3.577 X0.575 Y0.691 E0.91901
G1 Z3.588 X0.441 Y0.783 E0.92208
G1 Z3.603 X0.248 Y0.862 E0.92602
G1 Z3.625 X-0.052 Y0.895 E0.93171
G1 Z3.641 X-0.273 Y0.854 E0.93595
G1 Z3.655 X-0.456 Y0.771 E0.93973
G1 Z3.673 X-0.651 Y0.615 E0.94444
G1 Z3.688 X-0.781 Y0.438 E0.94858
G1 Z3.700 X-0.842 Y0.288 E0.95163
G1 Z3.700 F7800.000
G1 X-0.842 Y0.288 F7800.000
G1 F600
G1 Z3.705 X-0.867 Y0.224 E0.95294
G1 Z3.721 X-0.896 Y-0.000 E0.95719
G1 Z3.737 X-0.867 Y-0.224 E0.96144
G1 Z3.753 X-0.784 Y-0.433 E0.96569
G1 Z3.772 X-0.621 Y-0.643 E0.97070
G1 Z3.787 X-0.456 Y-0.771 E0.97463
G1 Z3.801 X-0.273 Y-0.852 E0.97841
G1 Z3.822 X0.017 Y-0.896 E0.98393
G1 Z3.837 X0.224 Y-0.869 E0.98787
G1 Z3.849 X0.386 Y-0.811 E0.99112
G1 Z3.865 X0.575 Y-0.691 E0.99535
G1 Z3.872 X0.646 Y-0.624 E0.99718
G1 Z3.887 X0.773 Y-0.459 E1.00112
G1 Z3.897 X0.837 Y-0.330 E1.00383
G1 Z3.913 X0.893 Y-0.112 E1.00806
G1 Z3.929 X0.893 Y0.112 E1.01230
G1 Z3.938 X0.866 Y0.244 E1.01483
G1 Z3.953 X0.786 Y0.437 E1.01877
G1 Z3.961 X0.729 Y0.527 E1.02078
G1 Z3.977 X0.575 Y0.691 E1.02501
G1 Z3.988 X0.441 Y0.783 E1.02808
G1 Z4.003 X0.248 Y0.862 E1.03202
G1 Z4.025 X-0.052 Y0.895 E1.03772
G1 Z4.041 X-0.273 Y0.854 E1.04196
G1 Z4.055 X-0.456 Y0.771 E1.04574
G1 Z4.073 X-0.651 Y0.615 E1.05044
G1 Z4.088 X-0.781 Y0.438 E1.05458
G1 Z4.100 X-0.842 Y0.288 E1.05763
G1 Z4.100 F7800.000
G1 F600
G1 Z4.121 X-0.896 Y-0.002 E1.06318
G1 Z4.137 X-0.867 Y-0.224 E1.06740
G1 Z4.153 X-0.784 Y-0.433 E1.07164
G1 Z4.172 X-0.621 Y-0.643 E1.07664
G1 Z4.187 X-0.456 Y-0.771 E1.08057
G1 Z4.201 X-0.273 Y-0.854 E1.08434
G1 Z4.221 X0.009 Y-0.896 E1.08972
G1 Z4.237 X0.223 Y-0.867 E1.09378
G1 Z4.249 X0.387 Y-0.811 E1.09705
G1 Z4.265 X0.575 Y-0.691 E1.10125
G1 Z4.272 X0.646 Y-0.624 E1.10307
G1 Z4.287 X0.773 Y-0.459 E1.10701
G1 Z4.297 X0.837 Y-0.330 E1.10971
G1 Z4.313 X0.893 Y-0.112 E1.11394
G1 Z4.329 X0.893 Y0.112 E1.11817
G1 Z4.338 X0.866 Y0.244 E1.12070
G1 Z4.353 X0.786 Y0.437 E1.12463
G1 Z4.361 X0.729 Y0.527 E1.12663
G1 Z4.377 X0.575 Y0.691 E1.13086
G1 Z4.388 X0.441 Y0.783 E1.13392
G1 Z4.403 X0.254 Y0.860 E1.13773
G1 Z4.425 X-0.052 Y0.895 E1.14354
G1 Z4.438 X-0.241 Y0.863 E1.14714
G1 Z4.453 X-0.433 Y0.783 E1.15107
G1 Z4.473 X-0.651 Y0.615 E1.15624
G1 Z4.488 X-0.781 Y0.438 E1.16037
G1 Z4.500 X-0.842 Y0.288 E1.16342
G1 Z4.500 F7800.000
G1 X-0.842 Y0.288 F7800.000
G1 F600
G1 Z4.521 X-0.896 Y0.000 E1.16895
G1 Z4.537 X-0.867 Y-0.224 E1.17320
G1 Z4.553 X-0.783 Y-0.433 E1.17744
G1 Z4.572 X-0.621 Y-0.643 E1.18245
G1 Z4.587 X-0.456 Y-0.771 E1.18639
G1 Z4.601 X-0.273 Y-0.854 E1.19017
G1 Z4.620 X-0.012 Y-0.895 E1.19515
G1 Z4.637 X0.221 Y-0.869 E1.19958
G1 Z4.649 X0.386 Y-0.811 E1.20288
G1 Z4.665 X0.575 Y-0.691 E1.20711
G1 Z4.672 X0.646 Y-0.624 E1.20893
G1 Z4.687 X0.773 Y-0.459 E1.21287
G1 Z4.697 X0.837 Y-0.330 E1.21558
G1 Z4.713 X0.893 Y-0.112 E1.21982
G1 Z4.729 X0.893 Y0.112 E1.22405
G1 Z4.738 X0.866 Y0.244 E1.22659
G1 Z4.754 X0.783 Y0.443 E1.23065
G1 Z4.777 X0.575 Y0.691 E1.23676
G1 Z4.788 X0.441 Y0.783 E1.23981
G1 Z4.803 X0.248 Y0.862 E1.24375
G1 Z4.825 X-0.052 Y0.895 E1.24945
G1 Z4.841 X-0.273 Y0.854 E1.25369
G1 Z4.855 X-0.456 Y0.771 E1.25747
G1 Z4.873 X-0.651 Y0.615 E1.26217
G1 Z4.888 X-0.781 Y0.438 E1.26631
G1 Z4.900 X-0.842 Y0.288 E1.26936
G1 Z4.900 F7800.000
G1 X-0.842 Y0.288 F7800.000
G1 F600
G1 Z4.905 X-0.867 Y0.224 E1.27067
G1 Z4.921 X-0.896 Y-0.000 E1.27492
G1 Z4.937 X-0.867 Y-0.224 E1.27917
G1 Z4.952 X-0.790 Y-0.415 E1.28305
G1 Z4.972 X-0.621 Y-0.643 E1.28841
G1 Z4.987 X-0.456 Y-0.771 E1.29235
G1 Z5.001 X-0.274 Y-0.854 E1.29612
G1 Z5.018 X-0.034 Y-0.895 E1.30071
G1 Z5.033 X0.172 Y-0.880 E1.30460
G1 Z5.049 X0.386 Y-0.811 E1.30884
G1 Z5.065 X0.575 Y-0.691 E1.31307
G1 Z5.072 X0.646 Y-0.624 E1.31490
G1 Z5.087 X0.773 Y-0.459 E1.31884
G1 Z5.097 X0.837 Y-0.330 E1.32155
G1 Z5.113 X0.893 Y-0.112 E1.32579
G1 Z5.123 X0.900 Y0.024 E1.32836
G1 Z5.138 X0.866 Y0.244 E1.33256
G1 Z5.153 X0.786 Y0.437 E1.33649
G1 Z5.161 X0.729 Y0.527 E1.33850
G1 Z5.177 X0.575 Y0.691 E1.34274
G1 Z5.188 X0.441 Y0.783 E1.34580
G1 Z5.203 X0.248 Y0.862 E1.34974
G1 Z5.225 X-0.052 Y0.895 E1.35544
G1 Z5.241 X-0.273 Y0.854 E1.35968
G1 Z5.255 X-0.456 Y0.771 E1.36346
G1 Z5.273 X-0.651 Y0.615 E1.36817
G1 Z5.288 X-0.781 Y0.438 E1.37230
G1 Z5.300 X-0.842 Y0.288 E1.37535
G1 Z5.300 F7800.000
G1 X-0.842 Y0.288 F7800.000
G1 F600
G1 Z5.305 X-0.867 Y0.224 E1.37666
G1 Z5.321 X-0.896 Y0.000 E1.38091
G1 Z5.337 X-0.867 Y-0.224 E1.38516
G1 Z5.353 X-0.784 Y-0.433 E1.38941
G1 Z5.372 X-0.621 Y-0.643 E1.39442
G1 Z5.387 X-0.456 Y-0.771 E1.39836
G1 Z5.401 X-0.274 Y-0.853 E1.40212
G1 Z5.422 X0.017 Y-0.896 E1.40766
G1 Z5.437 X0.224 Y-0.869 E1.41160
G1 Z5.449 X0.386 Y-0.811 E1.41484
G1 Z5.465 X0.575 Y-0.691 E1.41908
G1 Z5.472 X0.646 Y-0.624 E1.42091
G1 Z5.487 X0.773 Y-0.459 E1.42485
G1 Z5.497 X0.837 Y-0.330 E1.42756
G1 Z5.513 X0.893 Y-0.112 E1.43180
G1 Z5.529 X0.893 Y0.112 E1.43603
G1 Z5.539 X0.866 Y0.244 E1.43857
G1 Z5.553 X0.786 Y0.437 E1.44250
G1 Z5.561 X0.729 Y0.527 E1.44451
G1 Z5.577 X0.576 Y0.690 E1.44872
G1 Z5.588 X0.440 Y0.781 E1.45180
G1 Z5.603 X0.248 Y0.862 E1.45574
G1 Z5.625 X-0.052 Y0.895 E1.46144
G1 Z5.641 X-0.273 Y0.854 E1.46568
G1 Z5.655 X-0.456 Y0.771 E1.46946
G1 Z5.673 X-0.651 Y0.615 E1.47416
G1 Z5.688 X-0.781 Y0.438 E1.47830
G1 Z5.700 X-0.842 Y0.288 E1.48135
G1 Z5.700 F7800.000
G1 X-0.842 Y0.288 F7800.000
G1 F600
G1 Z5.705 X-0.867 Y0.224 E1.48266
G1 Z5.721 X-0.896 Y0.000 E1.48691
G1 Z5.737 X-0.867 Y-0.224 E1.49116
G1 Z5.753 X-0.784 Y-0.433 E1.49541
G1 Z5.772 X-0.621 Y-0.643 E1.50042
G1 Z5.787 X-0.456 Y-0.771 E1.50436
G1 Z5.801 X-0.275 Y-0.853 E1.50810
G1 Z5.820 X-0.010 Y-0.897 E1.51318
G1 Z5.833 X0.172 Y-0.881 E1.51661
G1 Z5.853 X0.441 Y-0.783 E1.52202
G1 Z5.865 X0.575 Y-0.691 E1.52508
G1 Z5.881 X0.728 Y-0.528 E1.52928
G1 Z5.903 X0.866 Y-0.244 E1.53524
G1 Z5.913 X0.893 Y-0.112 E1.53778
G1 Z5.929 X0.893 Y0.112 E1.54201
G1 Z5.938 X0.866 Y0.244 E1.54455
G1 Z5.953 X0.786 Y0.437 E1.54848
G1 Z5.961 X0.729 Y0.527 E1.55049
G1 Z5.977 X0.575 Y0.691 E1.55472
G1 Z5.988 X0.441 Y0.783 E1.55779
G1 Z6.003 X0.248 Y0.862 E1.56173
G1 Z6.025 X-0.052 Y0.895 E1.56743
G1 Z6.041 X-0.273 Y0.854 E1.57167
G1 Z6.055 X-0.456 Y0.771 E1.57545
G1 Z6.073 X-0.651 Y0.615 E1.58015
G1 Z6.088 X-0.781 Y0.438 E1.58429
G1 Z6.100 X-0.842 Y0.288 E1.58734
G1 Z6.100 F7800.000
G1 F600
G1 Z6.105 X-0.867 Y0.224 E1.58865
G1 Z6.121 X-0.896 Y-0.000 E1.59290
G1 Z6.137 X-0.867 Y-0.224 E1.59715
G1 Z6.153 X-0.784 Y-0.433 E1.60140
G1 Z6.172 X-0.621 Y-0.643 E1.60641
G1 Z6.187 X-0.456 Y-0.771 E1.61035
G1 Z6.201 X-0.273 Y-0.854 E1.61413
G1 Z6.222 X0.017 Y-0.896 E1.61965
G1 Z6.237 X0.224 Y-0.869 E1.62359
G1 Z6.249 X0.386 Y-0.811 E1.62683
G1 Z6.265 X0.575 Y-0.691 E1.63107
G1 Z6.272 X0.646 Y-0.624 E1.63290
G1 Z6.287 X0.773 Y-0.459 E1.63684
G1 Z6.297 X0.837 Y-0.330 E1.63955
G1 Z6.313 X0.893 Y-0.112 E1.64378
G1 Z6.329 X0.893 Y0.112 E1.64802
G1 Z6.338 X0.866 Y0.244 E1.65055
G1 Z6.353 X0.786 Y0.437 E1.65449
G1 Z6.361 X0.729 Y0.527 E1.65650
G1 Z6.377 X0.575 Y0.691 E1.66073
G1 Z6.388 X0.441 Y0.783 E1.66380
G1 Z6.403 X0.248 Y0.862 E1.66774
G1 Z6.425 X-0.052 Y0.895 E1.67344
G1 Z6.441 X-0.273 Y0.854 E1.67768
G1 Z6.455 X-0.456 Y0.771 E1.68146
G1 Z6.473 X-0.651 Y0.615 E1.68616
G1 Z6.488 X-0.781 Y0.438 E1.69030
G1 Z6.500 X-0.842 Y0.288 E1.69335
G1 Z6.500 F7800.000
G1 F600
G1 Z6.505 X-0.867 Y0.224 E1.69466
G1 Z6.521 X-0.896 Y-0.000 E1.69891
