;FLAVOR:RepRap
;TIME:69
;Filament used: 0.0196184m
;Layer height: 0.5
;MINX:-0.995
;MINY:-1
;MINZ:0.5
;MAXX:0.995
;MAXY:0.978
;MAXZ:50.5
;Generated with Cura_SteamEngine 4.4.1
T0
M109 S205

M82 ;absolute extrusion mode
G28 ;Home
G92 E0
G1 F200 E1
G92 E0

M83 ;relative extrusion mode
;LAYER_COUNT:100
;LAYER:0
M107
G0 F1800 X0.407 Y-.914 Z0.5
;TYPE:WALL-OUTER
G1 F600 X0.743 Y-.669 Z0.533 E0.01308
G1 X0.951 Y-.309 Z0.566 E0.01308
G1 X0.995 Y0.105 Z0.6 E0.0131
G1 X0.866 Y0.5 Z0.633 E0.01307
G1 X0.588 Y0.809 Z0.666 E0.01307
G1 X0.208 Y0.978 Z0.699 E0.01308
G1 X-.208 Y0.978 Z0.733 E0.01309
G1 X-.588 Y0.809 Z0.766 E0.01308
G1 X-.866 Y0.5 Z0.799 E0.01307
G1 X-.995 Y0.105 Z0.833 E0.01307
G1 X-.951 Y-.309 Z0.866 E0.01309
G1 X-.743 Y-.669 Z0.899 E0.01308
G1 X-.407 Y-.914 Z0.933 E0.01308
G1 X0.00 Y-1 Z0.966 E0.01308
G1 X0.407 Y-.914 Z1 E0.01309
G0 F1800 X0.568 Y-.796
G0 X0.407 Y-.914
;TIME_ELAPSED:0.901134
;LAYER:1
M106 S255
;TYPE:WALL-OUTER
G1 F600 X0.743 Y-.669 Z1.033 E0.01308
G1 X0.951 Y-.309 Z1.066 E0.01308
G1 X0.995 Y0.105 Z1.1 E0.0131
G1 X0.866 Y0.5 Z1.133 E0.01307
G1 X0.588 Y0.809 Z1.166 E0.01307
G1 X0.208 Y0.978 Z1.199 E0.01308
G1 X-.208 Y0.978 Z1.233 E0.01309
G1 X-.588 Y0.809 Z1.266 E0.01308
G1 X-.866 Y0.5 Z1.299 E0.01307
G1 X-.995 Y0.105 Z1.333 E0.01307
G1 X-.951 Y-.309 Z1.366 E0.01309
G1 X-.743 Y-.669 Z1.399 E0.01308
G1 X-.407 Y-.914 Z1.433 E0.01308
G1 X0.00 Y-1 Z1.466 E0.01308
G1 X0.407 Y-.914 Z1.5 E0.01309
G0 F2700 X0.568 Y-.796
G0 X0.407 Y-.914
;TIME_ELAPSED:1.596992
;LAYER:2
;TYPE:WALL-OUTER
G1 F600 X0.743 Y-.669 Z1.533 E0.01308
G1 X0.951 Y-.309 Z1.566 E0.01308
G1 X0.995 Y0.105 Z1.6 E0.0131
G1 X0.866 Y0.5 Z1.633 E0.01307
G1 X0.588 Y0.809 Z1.666 E0.01307
G1 X0.208 Y0.978 Z1.699 E0.01308
G1 X-.208 Y0.978 Z1.733 E0.01309
G1 X-.588 Y0.809 Z1.766 E0.01308
G1 X-.866 Y0.5 Z1.799 E0.01307
G1 X-.995 Y0.105 Z1.833 E0.01307
G1 X-.951 Y-.309 Z1.866 E0.01309
G1 X-.743 Y-.669 Z1.899 E0.01308
G1 X-.407 Y-.914 Z1.933 E0.01308
G1 X0.00 Y-1 Z1.966 E0.01308
G1 X0.407 Y-.914 Z2 E0.01309
G0 F3600 X0.568 Y-.796
G0 X0.407 Y-.914
;TIME_ELAPSED:2.292850
;LAYER:3
;TYPE:WALL-OUTER
G1 F600 X0.743 Y-.669 Z2.033 E0.01308
G1 X0.951 Y-.309 Z2.066 E0.01308
G1 X0.995 Y0.105 Z2.1 E0.0131
G1 X0.866 Y0.5 Z2.133 E0.01307
G1 X0.588 Y0.809 Z2.166 E0.01307
G1 X0.208 Y0.978 Z2.199 E0.01308
G1 X-.208 Y0.978 Z2.233 E0.01309
G1 X-.588 Y0.809 Z2.266 E0.01308
G1 X-.866 Y0.5 Z2.299 E0.01307
G1 X-.995 Y0.105 Z2.333 E0.01307
G1 X-.951 Y-.309 Z2.366 E0.01309
G1 X-.743 Y-.669 Z2.399 E0.01308
G1 X-.407 Y-.914 Z2.433 E0.01308
G1 X0.00 Y-1 Z2.466 E0.01308
G1 X0.407 Y-.914 Z2.5 E0.01309
G0 F3600 X0.568 Y-.796
G0 X0.407 Y-.914
;TIME_ELAPSED:2.988708
;LAYER:4
;TYPE:WALL-OUTER
G1 F600 X0.743 Y-.669 Z2.533 E0.01308
G1 X0.951 Y-.309 Z2.566 E0.01308
G1 X0.995 Y0.105 Z2.6 E0.0131
G1 X0.866 Y0.5 Z2.633 E0.01307
G1 X0.588 Y0.809 Z2.666 E0.01307
G1 X0.208 Y0.978 Z2.699 E0.01308
G1 X-.208 Y0.978 Z2.733 E0.01309
G1 X-.588 Y0.809 Z2.766 E0.01308
G1 X-.866 Y0.5 Z2.799 E0.01307
G1 X-.995 Y0.105 Z2.833 E0.01307
G1 X-.951 Y-.309 Z2.866 E0.01309
G1 X-.743 Y-.669 Z2.899 E0.01308
G1 X-.407 Y-.914 Z2.933 E0.01308
G1 X0.00 Y-1 Z2.966 E0.01308
G1 X0.407 Y-.914 Z3 E0.01309
G0 F3600 X0.568 Y-.796
G0 X0.407 Y-.914
;TIME_ELAPSED:3.684566
;LAYER:5
;TYPE:WALL-OUTER
G1 F600 X0.743 Y-.669 Z3.033 E0.01308
G1 X0.951 Y-.309 Z3.066 E0.01308
G1 X0.995 Y0.105 Z3.1 E0.0131
G1 X0.866 Y0.5 Z3.133 E0.01307
G1 X0.588 Y0.809 Z3.166 E0.01307
G1 X0.208 Y0.978 Z3.199 E0.01308
G1 X-.208 Y0.978 Z3.233 E0.01309
G1 X-.588 Y0.809 Z3.266 E0.01308
G1 X-.866 Y0.5 Z3.299 E0.01307
G1 X-.995 Y0.105 Z3.333 E0.01307
G1 X-.951 Y-.309 Z3.366 E0.01309
G1 X-.743 Y-.669 Z3.399 E0.01308
G1 X-.407 Y-.914 Z3.433 E0.01308
G1 X0.00 Y-1 Z3.466 E0.01308
G1 X0.407 Y-.914 Z3.5 E0.01309
G0 F3600 X0.568 Y-.796
G0 X0.407 Y-.914
;TIME_ELAPSED:4.380424
;LAYER:6
;TYPE:WALL-OUTER
G1 F600 X0.743 Y-.669 Z3.533 E0.01308
G1 X0.951 Y-.309 Z3.566 E0.01308
G1 X0.995 Y0.105 Z3.6 E0.0131
G1 X0.866 Y0.5 Z3.633 E0.01307
G1 X0.588 Y0.809 Z3.666 E0.01307
G1 X0.208 Y0.978 Z3.699 E0.01308
G1 X-.208 Y0.978 Z3.733 E0.01309
G1 X-.588 Y0.809 Z3.766 E0.01308
G1 X-.866 Y0.5 Z3.799 E0.01307
G1 X-.995 Y0.105 Z3.833 E0.01307
G1 X-.951 Y-.309 Z3.866 E0.01309
G1 X-.743 Y-.669 Z3.899 E0.01308
G1 X-.407 Y-.914 Z3.933 E0.01308
G1 X0.00 Y-1 Z3.966 E0.01308
G1 X0.407 Y-.914 Z4 E0.01309
G0 F3600 X0.568 Y-.796
G0 X0.407 Y-.914
;TIME_ELAPSED:5.076283
;LAYER:7
;TYPE:WALL-OUTER
G1 F600 X0.743 Y-.669 Z4.033 E0.01308
G1 X0.951 Y-.309 Z4.066 E0.01308
G1 X0.995 Y0.105 Z4.1 E0.0131
G1 X0.866 Y0.5 Z4.133 E0.01307
G1 X0.588 Y0.809 Z4.166 E0.01307
G1 X0.208 Y0.978 Z4.199 E0.01308
G1 X-.208 Y0.978 Z4.233 E0.01309
G1 X-.588 Y0.809 Z4.266 E0.01308
G1 X-.866 Y0.5 Z4.299 E0.01307
G1 X-.995 Y0.105 Z4.333 E0.01307
G1 X-.951 Y-.309 Z4.366 E0.01309
G1 X-.743 Y-.669 Z4.399 E0.01308
G1 X-.407 Y-.914 Z4.433 E0.01308
G1 X0.00 Y-1 Z4.466 E0.01308
G1 X0.407 Y-.914 Z4.5 E0.01309
G0 F3600 X0.568 Y-.796
G0 X0.407 Y-.914
;TIME_ELAPSED:5.772141
;LAYER:8
;TYPE:WALL-OUTER
G1 F600 X0.743 Y-.669 Z4.533 E0.01308
G1 X0.951 Y-.309 Z4.566 E0.01308
G1 X0.995 Y0.105 Z4.6 E0.0131
G1 X0.866 Y0.5 Z4.633 E0.01307
G1 X0.588 Y0.809 Z4.666 E0.01307
G1 X0.208 Y0.978 Z4.699 E0.01308
G1 X-.208 Y0.978 Z4.733 E0.01309
G1 X-.588 Y0.809 Z4.766 E0.01308
G1 X-.866 Y0.5 Z4.799 E0.01307
G1 X-.995 Y0.105 Z4.833 E0.01307
G1 X-.951 Y-.309 Z4.866 E0.01309
G1 X-.743 Y-.669 Z4.899 E0.01308
G1 X-.407 Y-.914 Z4.933 E0.01308
G1 X0.00 Y-1 Z4.966 E0.01308
G1 X0.407 Y-.914 Z5 E0.01309
G0 F3600 X0.568 Y-.796
G0 X0.407 Y-.914
;TIME_ELAPSED:6.467999
;LAYER:9
;TYPE:WALL-OUTER
G1 F600 X0.743 Y-.669 Z5.033 E0.01308
G1 X0.951 Y-.309 Z5.066 E0.01308
G1 X0.995 Y0.105 Z5.1 E0.0131
G1 X0.866 Y0.5 Z5.133 E0.01307
G1 X0.588 Y0.809 Z5.166 E0.01307
G1 X0.208 Y0.978 Z5.199 E0.01308
G1 X-.208 Y0.978 Z5.233 E0.01309
G1 X-.588 Y0.809 Z5.266 E0.01308
G1 X-.866 Y0.5 Z5.299 E0.01307
G1 X-.995 Y0.105 Z5.333 E0.01307
G1 X-.951 Y-.309 Z5.366 E0.01309
G1 X-.743 Y-.669 Z5.399 E0.01308
G1 X-.407 Y-.914 Z5.433 E0.01308
G1 X0.00 Y-1 Z5.466 E0.01308
G1 X0.407 Y-.914 Z5.5 E0.01309
G0 F3600 X0.568 Y-.796
G0 X0.407 Y-.914
;TIME_ELAPSED:7.163857
;LAYER:10
;TYPE:WALL-OUTER
G1 F600 X0.743 Y-.669 Z5.533 E0.01308
G1 X0.951 Y-.309 Z5.566 E0.01308
G1 X0.995 Y0.105 Z5.6 E0.0131
G1 X0.866 Y0.5 Z5.633 E0.01307
G1 X0.588 Y0.809 Z5.666 E0.01307
G1 X0.208 Y0.978 Z5.699 E0.01308
G1 X-.208 Y0.978 Z5.733 E0.01309
G1 X-.588 Y0.809 Z5.766 E0.01308
G1 X-.866 Y0.5 Z5.799 E0.01307
G1 X-.995 Y0.105 Z5.833 E0.01307
G1 X-.951 Y-.309 Z5.866 E0.01309
G1 X-.743 Y-.669 Z5.899 E0.01308
G1 X-.407 Y-.914 Z5.933 E0.01308
G1 X0.00 Y-1 Z5.966 E0.01308
G1 X0.407 Y-.914 Z6 E0.01309
G0 F3600 X0.568 Y-.796
G0 X0.407 Y-.914
;TIME_ELAPSED:7.859715
;LAYER:11
;TYPE:WALL-OUTER
G1 F600 X0.743 Y-.669 Z6.033 E0.01308
G1 X0.951 Y-.309 Z6.066 E0.01308
G1 X0.995 Y0.105 Z6.1 E0.0131
G1 X0.866 Y0.5 Z6.133 E0.01307
G1 X0.588 Y0.809 Z6.166 E0.01307
G1 X0.208 Y0.978 Z6.199 E0.01308
G1 X-.208 Y0.978 Z6.233 E0.01309
G1 X-.588 Y0.809 Z6.266 E0.01308
G1 X-.866 Y0.5 Z6.299 E0.01307
G1 X-.995 Y0.105 Z6.333 E0.01307
G1 X-.951 Y-.309 Z6.366 E0.01309
G1 X-.743 Y-.669 Z6.399 E0.01308
G1 X-.407 Y-.914 Z6.433 E0.01308
G1 X0.00 Y-1 Z6.466 E0.01308
G1 X0.407 Y-.914 Z6.5 E0.01309
G0 F3600 X0.568 Y-.796
G0 X0.407 Y-.914
;TIME_ELAPSED:8.555573
;LAYER:12
;TYPE:WALL-OUTER
G1 F600 X0.743 Y-.669 Z6.533 E0.01308
G1 X0.951 Y-.309 Z6.566 E0.01308
G1 X0.995 Y0.105 Z6.6 E0.0131
G1 X0.866 Y0.5 Z6.633 E0.01307
G1 X0.588 Y0.809 Z6.666 E0.01307
G1 X0.208 Y0.978 Z6.699 E0.01308
G1 X-.208 Y0.978 Z6.733 E0.01309
G1 X-.588 Y0.809 Z6.766 E0.01308
G1 X-.866 Y0.5 Z6.799 E0.01307
G1 X-.995 Y0.105 Z6.833 E0.01307
G1 X-.951 Y-.309 Z6.866 E0.01309
G1 X-.743 Y-.669 Z6.899 E0.01308
G1 X-.407 Y-.914 Z6.933 E0.01308
G1 X0.00 Y-1 Z6.966 E0.01308
G1 X0.407 Y-.914 Z7 E0.01309
G0 F3600 X0.568 Y-.796
G0 X0.407 Y-.914
;TIME_ELAPSED:9.251431
;LAYER:13
;TYPE:WALL-OUTER
G1 F600 X0.743 Y-.669 Z7.033 E0.01308
G1 X0.951 Y-.309 Z7.066 E0.01308
G1 X0.995 Y0.105 Z7.1 E0.0131
G1 X0.866 Y0.5 Z7.133 E0.01307
G1 X0.588 Y0.809 Z7.166 E0.01307
G1 X0.208 Y0.978 Z7.199 E0.01308
G1 X-.208 Y0.978 Z7.233 E0.01309
G1 X-.588 Y0.809 Z7.266 E0.01308
G1 X-.866 Y0.5 Z7.299 E0.01307
G1 X-.995 Y0.105 Z7.333 E0.01307
G1 X-.951 Y-.309 Z7.366 E0.01309
G1 X-.743 Y-.669 Z7.399 E0.01308
G1 X-.407 Y-.914 Z7.433 E0.01308
G1 X0.00 Y-1 Z7.466 E0.01308
G1 X0.407 Y-.914 Z7.5 E0.01309
G0 F3600 X0.568 Y-.796
G0 X0.407 Y-.914
;TIME_ELAPSED:9.947289
;LAYER:14
;TYPE:WALL-OUTER
G1 F600 X0.743 Y-.669 Z7.533 E0.01308
G1 X0.951 Y-.309 Z7.566 E0.01308
G1 X0.995 Y0.105 Z7.6 E0.0131
G1 X0.866 Y0.5 Z7.633 E0.01307
G1 X0.588 Y0.809 Z7.666 E0.01307
G1 X0.208 Y0.978 Z7.699 E0.01308
G1 X-.208 Y0.978 Z7.733 E0.01309
G1 X-.588 Y0.809 Z7.766 E0.01308
G1 X-.866 Y0.5 Z7.799 E0.01307
G1 X-.995 Y0.105 Z7.833 E0.01307
G1 X-.951 Y-.309 Z7.866 E0.01309
G1 X-.743 Y-.669 Z7.899 E0.01308
G1 X-.407 Y-.914 Z7.933 E0.01308
G1 X0.00 Y-1 Z7.966 E0.01308
G1 X0.407 Y-.914 Z8 E0.01309
G0 F3600 X0.568 Y-.796
G0 X0.407 Y-.914
;TIME_ELAPSED:10.643147
;LAYER:15
;TYPE:WALL-OUTER
G1 F600 X0.743 Y-.669 Z8.033 E0.01308
G1 X0.951 Y-.309 Z8.066 E0.01308
G1 X0.995 Y0.105 Z8.1 E0.0131
G1 X0.866 Y0.5 Z8.133 E0.01307
G1 X0.588 Y0.809 Z8.166 E0.01307
G1 X0.208 Y0.978 Z8.199 E0.01308
G1 X-.208 Y0.978 Z8.233 E0.01309
G1 X-.588 Y0.809 Z8.266 E0.01308
G1 X-.866 Y0.5 Z8.299 E0.01307
G1 X-.995 Y0.105 Z8.333 E0.01307
G1 X-.951 Y-.309 Z8.366 E0.01309
G1 X-.743 Y-.669 Z8.399 E0.01308
G1 X-.407 Y-.914 Z8.433 E0.01308
G1 X0.00 Y-1 Z8.466 E0.01308
G1 X0.407 Y-.914 Z8.5 E0.01309
G0 F3600 X0.568 Y-.796
G0 X0.407 Y-.914
;TIME_ELAPSED:11.339005
;LAYER:16
;TYPE:WALL-OUTER
G1 F600 X0.743 Y-.669 Z8.533 E0.01308
G1 X0.951 Y-.309 Z8.566 E0.01308
G1 X0.995 Y0.105 Z8.6 E0.0131
G1 X0.866 Y0.5 Z8.633 E0.01307
G1 X0.588 Y0.809 Z8.666 E0.01307
G1 X0.208 Y0.978 Z8.699 E0.01308
G1 X-.208 Y0.978 Z8.733 E0.01309
G1 X-.588 Y0.809 Z8.766 E0.01308
G1 X-.866 Y0.5 Z8.799 E0.01307
G1 X-.995 Y0.105 Z8.833 E0.01307
G1 X-.951 Y-.309 Z8.866 E0.01309
G1 X-.743 Y-.669 Z8.899 E0.01308
G1 X-.407 Y-.914 Z8.933 E0.01308
G1 X0.00 Y-1 Z8.966 E0.01308
G1 X0.407 Y-.914 Z9 E0.01309
G0 F3600 X0.568 Y-.796
G0 X0.407 Y-.914
;TIME_ELAPSED:12.034864
;LAYER:17
;TYPE:WALL-OUTER
G1 F600 X0.743 Y-.669 Z9.033 E0.01308
G1 X0.951 Y-.309 Z9.066 E0.01308
G1 X0.995 Y0.105 Z9.1 E0.0131
G1 X0.866 Y0.5 Z9.133 E0.01307
G1 X0.588 Y0.809 Z9.166 E0.01307
G1 X0.208 Y0.978 Z9.199 E0.01308
G1 X-.208 Y0.978 Z9.233 E0.01309
G1 X-.588 Y0.809 Z9.266 E0.01308
G1 X-.866 Y0.5 Z9.299 E0.01307
G1 X-.995 Y0.105 Z9.333 E0.01307
G1 X-.951 Y-.309 Z9.366 E0.01309
G1 X-.743 Y-.669 Z9.399 E0.01308
G1 X-.407 Y-.914 Z9.433 E0.01308
G1 X0.00 Y-1 Z9.466 E0.01308
G1 X0.407 Y-.914 Z9.5 E0.01309
G0 F3600 X0.568 Y-.796
G0 X0.407 Y-.914
;TIME_ELAPSED:12.730722
;LAYER:18
;TYPE:WALL-OUTER
G1 F600 X0.743 Y-.669 Z9.533 E0.01308
G1 X0.951 Y-.309 Z9.566 E0.01308
G1 X0.995 Y0.105 Z9.6 E0.0131
G1 X0.866 Y0.5 Z9.633 E0.01307
G1 X0.588 Y0.809 Z9.666 E0.01307
G1 X0.208 Y0.978 Z9.699 E0.01308
G1 X-.208 Y0.978 Z9.733 E0.01309
G1 X-.588 Y0.809 Z9.766 E0.01308
G1 X-.866 Y0.5 Z9.799 E0.01307
G1 X-.995 Y0.105 Z9.833 E0.01307
G1 X-.951 Y-.309 Z9.866 E0.01309
G1 X-.743 Y-.669 Z9.899 E0.01308
G1 X-.407 Y-.914 Z9.933 E0.01308
G1 X0.00 Y-1 Z9.966 E0.01308
G1 X0.407 Y-.914 Z10 E0.01309
G0 F3600 X0.568 Y-.796
G0 X0.407 Y-.914
;TIME_ELAPSED:13.426580
;LAYER:19
;TYPE:WALL-OUTER
G1 F600 X0.743 Y-.669 Z10.033 E0.01308
G1 X0.951 Y-.309 Z10.066 E0.01308
G1 X0.995 Y0.105 Z10.1 E0.0131
G1 X0.866 Y0.5 Z10.133 E0.01307
G1 X0.588 Y0.809 Z10.166 E0.01307
G1 X0.208 Y0.978 Z10.199 E0.01308
G1 X-.208 Y0.978 Z10.233 E0.01309
G1 X-.588 Y0.809 Z10.266 E0.01308
G1 X-.866 Y0.5 Z10.299 E0.01307
G1 X-.995 Y0.105 Z10.333 E0.01307
G1 X-.951 Y-.309 Z10.366 E0.01309
G1 X-.743 Y-.669 Z10.399 E0.01308
G1 X-.407 Y-.914 Z10.433 E0.01308
G1 X0.00 Y-1 Z10.466 E0.01308
G1 X0.407 Y-.914 Z10.5 E0.01309
G0 F3600 X0.568 Y-.796
G0 X0.407 Y-.914
;TIME_ELAPSED:14.122438
;LAYER:20
;TYPE:WALL-OUTER
G1 F600 X0.743 Y-.669 Z10.533 E0.01308
G1 X0.951 Y-.309 Z10.566 E0.01308
G1 X0.995 Y0.105 Z10.6 E0.0131
G1 X0.866 Y0.5 Z10.633 E0.01307
G1 X0.588 Y0.809 Z10.666 E0.01307
G1 X0.208 Y0.978 Z10.699 E0.01308
G1 X-.208 Y0.978 Z10.733 E0.01309
G1 X-.588 Y0.809 Z10.766 E0.01308
G1 X-.866 Y0.5 Z10.799 E0.01307
G1 X-.995 Y0.105 Z10.833 E0.01307
G1 X-.951 Y-.309 Z10.866 E0.01309
G1 X-.743 Y-.669 Z10.899 E0.01308
G1 X-.407 Y-.914 Z10.933 E0.01308
G1 X0.00 Y-1 Z10.966 E0.01308
G1 X0.407 Y-.914 Z11 E0.01309
G0 F3600 X0.568 Y-.796
G0 X0.407 Y-.914
;TIME_ELAPSED:14.818296
;LAYER:21
;TYPE:WALL-OUTER
G1 F600 X0.743 Y-.669 Z11.033 E0.01308
G1 X0.951 Y-.309 Z11.066 E0.01308
G1 X0.995 Y0.105 Z11.1 E0.0131
G1 X0.866 Y0.5 Z11.133 E0.01307
G1 X0.588 Y0.809 Z11.166 E0.01307
G1 X0.208 Y0.978 Z11.199 E0.01308
G1 X-.208 Y0.978 Z11.233 E0.01309
G1 X-.588 Y0.809 Z11.266 E0.01308
G1 X-.866 Y0.5 Z11.299 E0.01307
G1 X-.995 Y0.105 Z11.333 E0.01307
G1 X-.951 Y-.309 Z11.366 E0.01309
G1 X-.743 Y-.669 Z11.399 E0.01308
G1 X-.407 Y-.914 Z11.433 E0.01308
G1 X0.00 Y-1 Z11.466 E0.01308
G1 X0.407 Y-.914 Z11.5 E0.01309
G0 F3600 X0.568 Y-.796
G0 X0.407 Y-.914
;TIME_ELAPSED:15.514154
;LAYER:22
;TYPE:WALL-OUTER
G1 F600 X0.743 Y-.669 Z11.533 E0.01308
G1 X0.951 Y-.309 Z11.566 E0.01308
G1 X0.995 Y0.105 Z11.6 E0.0131
G1 X0.866 Y0.5 Z11.633 E0.01307
G1 X0.588 Y0.809 Z11.666 E0.01307
G1 X0.208 Y0.978 Z11.699 E0.01308
G1 X-.208 Y0.978 Z11.733 E0.01309
G1 X-.588 Y0.809 Z11.766 E0.01308
G1 X-.866 Y0.5 Z11.799 E0.01307
G1 X-.995 Y0.105 Z11.833 E0.01307
G1 X-.951 Y-.309 Z11.866 E0.01309
G1 X-.743 Y-.669 Z11.899 E0.01308
G1 X-.407 Y-.914 Z11.933 E0.01308
G1 X0.00 Y-1 Z11.966 E0.01308
G1 X0.407 Y-.914 Z12 E0.01309
G0 F3600 X0.568 Y-.796
G0 X0.407 Y-.914
;TIME_ELAPSED:16.210012
;LAYER:23
;TYPE:WALL-OUTER
G1 F600 X0.743 Y-.669 Z12.033 E0.01308
G1 X0.951 Y-.309 Z12.066 E0.01308
G1 X0.995 Y0.105 Z12.1 E0.0131
G1 X0.866 Y0.5 Z12.133 E0.01307
G1 X0.588 Y0.809 Z12.166 E0.01307
G1 X0.208 Y0.978 Z12.199 E0.01308
G1 X-.208 Y0.978 Z12.233 E0.01309
G1 X-.588 Y0.809 Z12.266 E0.01308
G1 X-.866 Y0.5 Z12.299 E0.01307
G1 X-.995 Y0.105 Z12.333 E0.01307
G1 X-.951 Y-.309 Z12.366 E0.01309
G1 X-.743 Y-.669 Z12.399 E0.01308
G1 X-.407 Y-.914 Z12.433 E0.01308
G1 X0.00 Y-1 Z12.466 E0.01308
G1 X0.407 Y-.914 Z12.5 E0.01309
G0 F3600 X0.568 Y-.796
G0 X0.407 Y-.914
;TIME_ELAPSED:16.905870
;LAYER:24
;TYPE:WALL-OUTER
G1 F600 X0.743 Y-.669 Z12.533 E0.01308
G1 X0.951 Y-.309 Z12.566 E0.01308
G1 X0.995 Y0.105 Z12.6 E0.0131
G1 X0.866 Y0.5 Z12.633 E0.01307
G1 X0.588 Y0.809 Z12.666 E0.01307
G1 X0.208 Y0.978 Z12.699 E0.01308
G1 X-.208 Y0.978 Z12.733 E0.01309
G1 X-.588 Y0.809 Z12.766 E0.01308
G1 X-.866 Y0.5 Z12.799 E0.01307
G1 X-.995 Y0.105 Z12.833 E0.01307
G1 X-.951 Y-.309 Z12.866 E0.01309
G1 X-.743 Y-.669 Z12.899 E0.01308
G1 X-.407 Y-.914 Z12.933 E0.01308
G1 X0.00 Y-1 Z12.966 E0.01308
G1 X0.407 Y-.914 Z13 E0.01309
G0 F3600 X0.568 Y-.796
G0 X0.407 Y-.914
;TIME_ELAPSED:17.601728
;LAYER:25
;TYPE:WALL-OUTER
G1 F600 X0.743 Y-.669 Z13.033 E0.01308
G1 X0.951 Y-.309 Z13.066 E0.01308
G1 X0.995 Y0.105 Z13.1 E0.0131
G1 X0.866 Y0.5 Z13.133 E0.01307
G1 X0.588 Y0.809 Z13.166 E0.01307
G1 X0.208 Y0.978 Z13.199 E0.01308
G1 X-.208 Y0.978 Z13.233 E0.01309
G1 X-.588 Y0.809 Z13.266 E0.01308
G1 X-.866 Y0.5 Z13.299 E0.01307
G1 X-.995 Y0.105 Z13.333 E0.01307
G1 X-.951 Y-.309 Z13.366 E0.01309
G1 X-.743 Y-.669 Z13.399 E0.01308
G1 X-.407 Y-.914 Z13.433 E0.01308
G1 X0.00 Y-1 Z13.466 E0.01308
G1 X0.407 Y-.914 Z13.5 E0.01309
G0 F3600 X0.568 Y-.796
G0 X0.407 Y-.914
;TIME_ELAPSED:18.297587
;LAYER:26
;TYPE:WALL-OUTER
G1 F600 X0.743 Y-.669 Z13.533 E0.01308
G1 X0.951 Y-.309 Z13.566 E0.01308
G1 X0.995 Y0.105 Z13.6 E0.0131
G1 X0.866 Y0.5 Z13.633 E0.01307
G1 X0.588 Y0.809 Z13.666 E0.01307
G1 X0.208 Y0.978 Z13.699 E0.01308
G1 X-.208 Y0.978 Z13.733 E0.01309
G1 X-.588 Y0.809 Z13.766 E0.01308
G1 X-.866 Y0.5 Z13.799 E0.01307
G1 X-.995 Y0.105 Z13.833 E0.01307
G1 X-.951 Y-.309 Z13.866 E0.01309
G1 X-.743 Y-.669 Z13.899 E0.01308
G1 X-.407 Y-.914 Z13.933 E0.01308
G1 X0.00 Y-1 Z13.966 E0.01308
G1 X0.407 Y-.914 Z14 E0.01309
G0 F3600 X0.568 Y-.796
G0 X0.407 Y-.914
